polaris-icons/icons/CursorOptionIcon.svg

<svg xmlns="http://www.w3.org/2000/svg" viewBox="0 0 20 20"><path d="M15 7.25V11C15 11.4142 15.3358 11.75 15.75 11.75C16.1642 11.75 16.5 11.4142 16.5 11V7.25C16.5 5.17893 14.8211 3.5 12.75 3.5H7.25C5.17893 3.5 3.5 5.17893 3.5 7.25V12.75C3.5 14.8211 5.17893 16.5 7.25 16.5H11C11.4142 16.5 11.75 16.1642 11.75 15.75C11.75 15.3358 11.4142 15 11 15H7.25C6.00736 15 5 13.9926 5 12.75L5 7.25C5 6.00736 6.00736 5 7.25 5L12.75 5C13.9926 5 15 6.00736 15 7.25Z"/>
<path d="M8.5 7.75C8.5 8.30229 8.05229 8.75 7.5 8.75C6.94772 8.75 6.5 8.30229 6.5 7.75C6.5 7.19772 6.94772 6.75 7.5 6.75C8.05229 6.75 8.5 7.19772 8.5 7.75Z"/>
<path d="M8.5 10.75C8.5 11.3023 8.05229 11.75 7.5 11.75C6.94772 11.75 6.5 11.3023 6.5 10.75C6.5 10.1977 6.94772 9.75 7.5 9.75C8.05229 9.75 8.5 10.1977 8.5 10.75Z"/>
<path d="M10.5 7C10.0858 7 9.75 7.33579 9.75 7.75C9.75 8.16421 10.0858 8.5 10.5 8.5H12.75C13.1642 8.5 13.5 8.16421 13.5 7.75C13.5 7.33579 13.1642 7 12.75 7H10.5Z"/>
<path d="M9.75 10.75C9.75 10.3358 10.0858 10 10.5 10H12.75C13.1642 10 13.5 10.3358 13.5 10.75C13.5 11.1642 13.1642 11.5 12.75 11.5H10.5C10.0858 11.5 9.75 11.1642 9.75 10.75Z"/>
<path d="M12.216 12.2161C12.34 12.092 12.52 12.0421 12.6902 12.0844L17.2006 13.2057C17.3755 13.2492 17.5135 13.3835 17.5617 13.5572C17.6099 13.7308 17.561 13.917 17.4335 14.0445L16.2693 15.2087L17.1103 16.0497C17.3055 16.245 17.3055 16.5615 17.1103 16.7568L16.7567 17.1104C16.5615 17.3056 16.2449 17.3056 16.0496 17.1104L15.2086 16.2694L14.0444 17.4336C13.917 17.561 13.7308 17.61 13.5571 17.5618C13.3834 17.5136 13.2491 17.3756 13.2056 17.2007L12.0843 12.6902C12.042 12.52 12.092 12.3401 12.216 12.2161Z"/></svg>

<svg xmlns="http://www.w3.org/2000/svg" viewBox="0 0 20 20"><path d="M15 7.25v3.75c0 .414.336.75.75.75s.75-.336.75-.75v-3.75c0-2.071-1.679-3.75-3.75-3.75h-5.5c-2.071 0-3.75 1.679-3.75 3.75v5.5c0 2.071 1.679 3.75 3.75 3.75h3.75c.414 0 .75-.336.75-.75s-.336-.75-.75-.75h-3.75c-1.243 0-2.25-1.007-2.25-2.25v-5.5c0-1.243 1.007-2.25 2.25-2.25h5.5c1.243 0 2.25 1.007 2.25 2.25Z"/><path d="M8.5 7.75c0 .552-.448 1-1 1s-1-.448-1-1 .448-1 1-1 1 .448 1 1Z"/><path d="M8.5 10.75c0 .552-.448 1-1 1s-1-.448-1-1 .448-1 1-1 1 .448 1 1Z"/><path d="M10.5 7c-.414 0-.75.336-.75.75s.336.75.75.75h2.25c.414 0 .75-.336.75-.75s-.336-.75-.75-.75h-2.25Z"/><path d="M9.75 10.75c0-.414.336-.75.75-.75h2.25c.414 0 .75.336.75.75s-.336.75-.75.75h-2.25c-.414 0-.75-.336-.75-.75Z"/><path d="M12.216 12.216c.124-.124.304-.174.474-.132l4.51 1.122c.175.043.314.178.362.351.048.174-.001.36-.129.487l-1.164 1.165.841.84c.195.196.195.512 0 .708l-.353.353c-.196.196-.512.196-.707 0l-.841-.84-1.165 1.164c-.127.127-.313.176-.487.128-.174-.048-.308-.186-.351-.361l-1.122-4.51c-.042-.171.008-.35.132-.475Z"/></svg>
